X: 10441
Q: "Maestoso"
M: C
L: 1/8
K: D
d2d>d d>efe | d>AF>A d2e2 |\
f2f>f f>gag | f>ede f2g2 |\
a2a>a a=c'ba | g2g>g gbag |
f>ed>e f>ag>f | e2e>e e2 :: A2 |\
d>ed>e f>gf>g |
a>ba>b =c'2ba |\
b>ge>b afde/f/ | (gf)(ed) (dc)(BA) |\


